X: 132
T: Cowboy Waltz
B: canberra pickers and fiddlers
B: old time tunes update
B: tunes
M:3/4
L:1/8
R: waltz
Q: 1/4=100
K:D
V:1 
A2 d2 e2|:"D"f6|f4 fg|f2 e2 d2|A2 F2 A2|"G"B4 B=c|B2 A2 G2|"D"A4-A B|
A2 d2 e2|f6|f4 fg|f2 e2 d2|A2 F2 A2|"E"B4 e2|e4 f2|"A"e6|A2 d2 e2|
"D"f6|f4 fg|f2 e2 d2|A2 F2 A2|"G"B4 B=c|B2 A2 G2|"D"A4-A B|A6|
d3 c d2|"A"e2 f2 g2|"D"a2 f2 d2|"G"b3 b ag|"D"f6|"A"f4 e2|"D"d6-|d6:|
|:"D"D2 F2 A2|d4 cd|"G"e2 d2 g2|B4 cB|"A"A2 c2 e2|a4 ab|a2 f2 e2|
"D"f3 d BA|D2 F2 A2|d4 cd|"G"e2 d2 g2|B4 cB|"A"A2 c2 e2|g2 f2 e2|"D"d6-|d6:|
% abcbook-tune_id 67a7d9ecc8493c16cb40afa8
% abcbook-tune_composer_id 
% abcbook-link-0 https://www.youtube.com/watch?v=329j0UoK0g8
% abcbook-link-title-0 Cowboy Waltz
% abcbook-boost 0
% abcbook-difficulty 0
% abcbook-tags old time tunes
% abcbook-tablature 
% abcbook-transpose 
% abcbook-tuning ADAE
% abcbook-lastupdated 1739273371504
% abcbook-src-url 
% abcbook-soundfonts 
% abcbook-repeats 1


